icon-themes/colibre_svg/svx/res/marker-rectplus11-3.svg

<svg height="11" viewBox="0 0 11 11" width="11" xmlns="http://www.w3.org/2000/svg"><path d="m0 0v11h11v-11zm5 1h1v1 3h3 1v1h-1-3v3 1h-1v-1-3h-3-1v-1h1 3v-3z" fill="#76a797"/><path d="m5 1v4h-4v1h4v4h1v-4h4v-1h-4v-4z" fill="#fff"/></svg>

<svg viewBox="0 0 11 11" xmlns="http://www.w3.org/2000/svg">
  <path
     style="fill:#76a797;opacity:0.66"
     d="M 0 0 L 0 11 L 11 11 L 11 0 L 0 0 z M 5 1 L 6 1 L 6 2 L 6 5 L 9 5 L 10 5 L 10 6 L 9 6 L 6 6 L 6 9 L 6 10 L 5 10 L 5 9 L 5 6 L 2 6 L 1 6 L 1 5 L 2 5 L 5 5 L 5 2 L 5 1 z "
     />
  <path
     style="fill:#fff;opacity:0.9"
     d="m5 1v4h-4v1h4v4h1v-4h4v-1h-4v-4z"
     />
</svg>
